X: 145
T: Cantantibus organis – Largo
C: Franciszek Walczyński
%%abc-version 2.0
%%abcx-abcm2ps-target-version 5.9.1 (29 Sep 2008)
%%abc-creator hum2abc beta
%%abcx-conversion-date 2021/10/04 07:38:39
%%abc-edited-by Antoni Szymański
%%abc-edited-by Anastazja Marusiak
%%abcx-initial-encoding-date 2021-07-28
%%humdrum-veritas 2682914616
%%humdrum-veritas-data 3275581178
%%linebreak <none>
%%barnumbers 0
L: 1/8
M: 3/4
N: Derived from pl-kozmzk--mzk-m-346--047_walczynski-franciszek--cantantibus-organis-largo.krn
%%staves {1 2}
V: 1 clef=treble
V: 2 clef=bass
K: Eb
[V:1] z6 & z6 | 
[V:2] E,G,2<B,2G, & z6 | 
[V:1] GF!accent!F4 & E2D4 | 
[V:2] =A,2B,4 & C,F,B,,4 | 
[V:1] z6 & z6 | 
[V:2] F,G,2<A,2D, & z6 | 
[V:1] F2!accent!E4 & D2C4 | 
[V:2] A,2G,4 & B,,=B,,C,4 | 
[V:1] EG2<B2G & z6 | 
[V:2] z6 & z6 | 
[V:1] GF!accent!F4 & E2D4 | 
[V:2] C2B,4 & =A,,2B,,4 | 
[V:1] FG2<A2F & DE-E4 | 
[V:2] B,2C4 & A,G,2<F,2A,, | 
[V:1] F2!fermata!E4 & D2E4 | 
[V:2] B,A,G,4 & B,,2!fermata!E,4 | 
[V:1] B2=ABeB & z6 | 
[V:2] z6 & z6 | 
[V:1] c2=Bc ed/c/ & E6- | 
[V:2] A,2G,A, CB,/A,/ & z6 | 
[V:1] B>cB2A2 & E4FE | 
[V:2] G,>A,G,2C2- & z2z2F,2 | 
[V:1] G6 & D6 | 
[V:2] C2=B,=A,B,2 & G,6 | 
[V:1] FG2<!accent!A2F & z2F3E | 
[V:2] z2C4 & z2.F,,.G,,A,,=A,, | 
[V:1] F2E4 & D2B,4 | 
[V:2] B,A,G,4 & B,,2E,4 | 
[V:1] z6 & z6 | 
[V:2] F,G,2<!accent!A,2D, & z6 | 
[V:1] A2!fermata!G4 & CDE4 |]  
[V:2] F,2E,4 & z B,,!fermata!E,,4 |]  


